X:1
T:Fantomas
T:Fantomas
C:Michel magne
Z:All Rights Reserved
L:1/8
M:4/4
K:C
V:1 treble nm="Piano" snm="Pno."
%%MIDI program 0
V:1
 E2 | A8 | e2 ^d2 c4- | c4 z E2 A- | A7 z | e2 c2 ^G4- | G4 z E2 A- | A7 z | e2 ^d2 g4- | %9
 g4 ^f2 g2- | g c'2 ^a g3 x | x5 z G2 | c8 | g2 ^f2 ^d4- | d4 z G2 c- | c7 z | g2 ^d2 B4- | %17
 B4 z G2 c- | c7 z | g2 ^f2 ^a4- | a4 =a2 ^a2- | a ^d'2 ^c' ^a3 x | x8 | x4 z4 |] %24

